modules/linea-ecommerce/icons/ecommerce-safe.svg

<svg version="1" xmlns="http://www.w3.org/2000/svg" width="64" height="64" viewBox="0 0 64 64"><path fill="none" stroke="#000" stroke-width="2" stroke-miterlimit="10" d="M1 5h62v54H1z"/><path fill="none" stroke="#000" stroke-width="2" stroke-miterlimit="10" d="M11 11h46v42H11zm-5 6h6M6 27h6M6 37h6M6 47h6"/><circle fill="none" stroke="#000" stroke-width="2" stroke-miterlimit="10" cx="44" cy="32" r="3"/><circle fill="none" stroke="#000" stroke-width="2" stroke-miterlimit="10" cx="44" cy="32" r="9"/><path fill="none" stroke="#000" stroke-width="2" stroke-miterlimit="10" d="M35 32h6m3-3v-6m3 9h6m-9 3v6m2-7l4 4m-4-8l4-4m-8 4l-4-4m4 8l-3.974 4"/></svg>

<svg version="1" xmlns="http://www.w3.org/2000/svg" width="64" height="64" viewBox="0 0 64 64"><path fill="none" stroke="#000" stroke-width="2" stroke-miterlimit="10" d="M1 5h62v54H1z"/><path fill="none" stroke="#000" stroke-width="2" stroke-miterlimit="10" d="M11 11h46v42H11zM6 17h6M6 27h6M6 37h6M6 47h6"/><circle fill="none" stroke="#000" stroke-width="2" stroke-miterlimit="10" cx="44" cy="32" r="3"/><circle fill="none" stroke="#000" stroke-width="2" stroke-miterlimit="10" cx="44" cy="32" r="9"/><path fill="none" stroke="#000" stroke-width="2" stroke-miterlimit="10" d="M35 32h6M44 29v-6M47 32h6M44 35v6M46 34l4 4M46 30l4-4M42 30l-4-4M42 34l-3.974 4"/></svg>
